;FLAVOR:Marlin
;TIME:1668
;Filament used: 1.0646m
;Layer height: 0.2
;MINX:81.715
;MINY:81.713
;MINZ:0.2
;MAXX:138.287
;MAXY:138.283
;MAXZ:5
;Generated with Creality Slicer 4.8.2-188
M140 S60
M105
M190 S60
M104 S200
M105
M109 S200
M82 ;absolute extrusion mode

G28 ;Home

G92 E0 ;Reset Extruder
G1 Z2.0 F3000 ;Move Z Axis up
G1 X10.1 Y20 Z0.28 F5000.0 ;Move to start position
G1 X10.1 Y200.0 Z0.28 F1500.0 E15 ;Draw the first line
G1 X10.4 Y200.0 Z0.28 F5000.0 ;Move to side a little
G1 X10.4 Y20 Z0.28 F1500.0 E30 ;Draw the second line
G92 E0 ;Reset Extruder
G1 Z2.0 F3000 ;Move Z Axis up

G92 E0
G92 E0
G1 F2400 E-0.8
;LAYER_COUNT:25
;LAYER:0
M107
M204 S2000
G0 F7500 X89.928 Y90.067 Z0.2
M204 S500
;TYPE:SKIRT
G1 F2400 E0
G1 F1500 X90.222 Y89.777 E0.01374
G1 X90.456 Y89.553 E0.02451
G1 X91.042 Y89.008 E0.05113
G1 X91.344 Y88.737 E0.06462
G1 X91.681 Y88.446 E0.07943
G1 X91.938 Y88.231 E0.09058
G1 X92.437 Y87.826 E0.11195
G1 X92.747 Y87.584 E0.12503
G1 X93.125 Y87.299 E0.14078
G1 X93.417 Y87.086 E0.1528
G1 X94.048 Y86.642 E0.17846
G1 X94.355 Y86.433 E0.19081
G1 X94.705 Y86.204 E0.20472
G1 X95.023 Y86.004 E0.21722
G1 X95.544 Y85.688 E0.23749
G1 X95.839 Y85.515 E0.24886
G1 X96.402 Y85.197 E0.27037
G1 X96.745 Y85.011 E0.28334
G1 X97.194 Y84.778 E0.30017
G1 X97.519 Y84.617 E0.31223
G1 X98.103 Y84.338 E0.33376
G1 X98.454 Y84.177 E0.3466
G1 X98.833 Y84.012 E0.36035
G1 X99.171 Y83.872 E0.37252
G1 X100.102 Y83.503 E0.40583
G1 X100.506 Y83.351 E0.42018
G1 X100.878 Y83.22 E0.4333
G1 X101.394 Y83.05 E0.45137
G1 X101.826 Y82.918 E0.4664
G1 X102.406 Y82.753 E0.48645
G1 X102.782 Y82.653 E0.49939
G1 X103.297 Y82.526 E0.51703
G1 X103.566 Y82.463 E0.52622
G1 X104.352 Y82.29 E0.55299
G1 X104.821 Y82.198 E0.56889
G1 X105.261 Y82.121 E0.58374
G1 X105.537 Y82.076 E0.59305
G1 X106.316 Y81.96 E0.61924
G1 X106.746 Y81.905 E0.63366
G1 X107.288 Y81.846 E0.65179
G1 X107.617 Y81.815 E0.66278
G1 X108.012 Y81.784 E0.67596
G1 X108.415 Y81.76 E0.68939
G1 X109.231 Y81.726 E0.71655
G1 X109.601 Y81.716 E0.72886
G1 X109.977 Y81.713 E0.74137
G1 X110.327 Y81.716 E0.75301
G1 X110.956 Y81.731 E0.77394
G1 X111.348 Y81.747 E0.78699
G1 X111.919 Y81.781 E0.80601
G1 X112.275 Y81.808 E0.81789
G1 X112.687 Y81.846 E0.83165
G1 X113.029 Y81.883 E0.84309
G1 X113.99 Y82.002 E0.8753
G1 X114.366 Y82.056 E0.88793
G1 X114.781 Y82.122 E0.90191
G1 X115.144 Y82.186 E0.91417
G1 X115.676 Y82.289 E0.93219
G1 X116.079 Y82.374 E0.94589
G1 X116.659 Y82.509 E0.9657
G1 X117 Y82.595 E0.97739
G1 X117.551 Y82.742 E0.99636
G1 X117.88 Y82.835 E1.00773
G1 X118.416 Y82.996 E1.02634
G1 X118.795 Y83.117 E1.03958
G1 X119.377 Y83.315 E1.06002
G1 X119.712 Y83.435 E1.07186
G1 X120.288 Y83.652 E1.09233
G1 X120.648 Y83.795 E1.10522
G1 X121.115 Y83.99 E1.12205
G1 X121.442 Y84.133 E1.13392
G1 X122.012 Y84.393 E1.15476
G1 X122.344 Y84.551 E1.16698
G1 X122.867 Y84.811 E1.18641
G1 X123.19 Y84.978 E1.1985
G1 X123.676 Y85.24 E1.21687
G1 X124.021 Y85.435 E1.23005
G1 X124.541 Y85.74 E1.2501
G1 X124.837 Y85.92 E1.26162
G1 X125.315 Y86.221 E1.28041
G1 X125.618 Y86.419 E1.29245
G1 X126.153 Y86.781 E1.31393
G1 X126.491 Y87.018 E1.32766
G1 X126.839 Y87.273 E1.34201
G1 X127.096 Y87.468 E1.35274
G1 X127.684 Y87.926 E1.37753
G1 X127.985 Y88.168 E1.39038
G1 X128.316 Y88.445 E1.40473
G1 X128.594 Y88.686 E1.41697
G1 X129.158 Y89.191 E1.44215
G1 X129.436 Y89.449 E1.45477
G1 X129.634 Y89.639 E1.46389
G1 X129.915 Y89.919 E1.47709
G1 X130.426 Y90.446 E1.5015
G1 X130.62 Y90.651 E1.51089
G1 X131.145 Y91.221 E1.53666
G1 X131.427 Y91.539 E1.5508
G1 X131.709 Y91.87 E1.56526
G1 X131.937 Y92.147 E1.5772
G1 X132.346 Y92.66 E1.59902
G1 X132.572 Y92.953 E1.61132
G1 X132.833 Y93.304 E1.62587
G1 X133.057 Y93.617 E1.63867
G1 X133.423 Y94.147 E1.6601
G1 X133.624 Y94.448 E1.67213
G1 X133.961 Y94.972 E1.69286
G1 X134.152 Y95.281 E1.70494
G1 X134.422 Y95.733 E1.72245
G1 X134.61 Y96.06 E1.735
G1 X134.871 Y96.533 E1.75296
G1 X135.049 Y96.868 E1.76558
G1 X135.452 Y97.662 E1.7952
G1 X135.644 Y98.056 E1.80977
G1 X135.844 Y98.498 E1.82591
G1 X136.089 Y99.072 E1.84667
G1 X136.227 Y99.41 E1.85881
G1 X136.449 Y99.982 E1.87922
G1 X136.584 Y100.351 E1.89229
G1 X136.952 Y101.414 E1.9297
G1 X137.002 Y101.567 E1.93505
G1 X137.151 Y102.064 E1.95231
G1 X137.333 Y102.725 E1.97511
G1 X137.424 Y103.078 E1.98724
G1 X137.562 Y103.653 E2.00691
G1 X137.641 Y104.004 E2.01887
G1 X137.765 Y104.607 E2.03935
G1 X137.833 Y104.971 E2.05167
G1 X137.916 Y105.457 E2.06806
G1 X137.976 Y105.851 E2.08132
G1 X138.097 Y106.756 E2.11169
G1 X138.139 Y107.109 E2.12351
G1 X138.187 Y107.629 E2.14088
G1 X138.234 Y108.325 E2.16408
G1 X138.253 Y108.718 E2.17717
G1 X138.285 Y109.747 E2.21141
G1 X138.287 Y109.876 E2.2157
G1 X138.281 Y110.44 E2.23446
G1 X138.259 Y111.055 E2.25493
G1 X138.245 Y111.344 E2.26455
G1 X138.185 Y112.31 E2.29674
G1 X138.153 Y112.702 E2.30982
G1 X138.117 Y113.069 E2.32209
G1 X138.071 Y113.464 E2.33532
G1 X137.988 Y114.08 E2.35599
G1 X137.932 Y114.452 E2.3685
G1 X137.832 Y115.041 E2.38837
G1 X137.768 Y115.384 E2.39998
G1 X137.672 Y115.858 E2.41606
G1 X137.588 Y116.238 E2.42901
G1 X137.419 Y116.943 E2.45312
G1 X137.322 Y117.319 E2.46603
G1 X137.213 Y117.712 E2.4796
G1 X137.119 Y118.032 E2.49069
G1 X136.899 Y118.741 E2.51538
G1 X136.774 Y119.118 E2.52859
G1 X136.595 Y119.629 E2.5466
G1 X136.472 Y119.964 E2.55847
G1 X136.285 Y120.447 E2.5757
G1 X136.143 Y120.795 E2.5882
G1 X135.912 Y121.336 E2.60776
G1 X135.768 Y121.659 E2.61953
G1 X135.491 Y122.254 E2.64136
G1 X135.317 Y122.61 E2.65453
G1 X135.068 Y123.098 E2.67276
G1 X134.911 Y123.395 E2.68393
G1 X134.677 Y123.821 E2.7001
G1 X134.489 Y124.15 E2.7127
G1 X134.101 Y124.802 E2.73793
G1 X133.915 Y125.104 E2.74973
G1 X133.718 Y125.412 E2.76189
G1 X133.496 Y125.745 E2.7752
G1 X133.024 Y126.427 E2.80279
G1 X132.822 Y126.709 E2.81433
G1 X132.569 Y127.051 E2.82847
G1 X132.341 Y127.349 E2.84095
G1 X132.002 Y127.776 E2.85909
G1 X131.758 Y128.072 E2.87185
G1 X131.296 Y128.614 E2.89553
G1 X131.058 Y128.885 E2.90753
G1 X130.803 Y129.165 E2.92013
G1 X130.54 Y129.443 E2.93285
G1 X129.877 Y130.122 E2.96442
G1 X129.69 Y130.309 E2.97321
G1 X129.523 Y130.472 E2.98098
G1 X129.152 Y130.818 E2.99785
G1 X128.864 Y131.08 E3.0108
G1 X128.506 Y131.394 E3.02664
G1 X128.007 Y131.813 E3.04831
G1 X127.715 Y132.049 E3.0608
G1 X127.134 Y132.504 E3.08534
G1 X126.826 Y132.737 E3.09819
G1 X126.543 Y132.943 E3.10983
G1 X126.246 Y133.152 E3.12191
G1 X125.745 Y133.492 E3.14205
G1 X125.461 Y133.678 E3.15334
G1 X124.736 Y134.138 E3.18189
G1 X124.397 Y134.345 E3.19511
G1 X124.091 Y134.524 E3.2069
G1 X123.766 Y134.707 E3.2193
G1 X123.307 Y134.955 E3.23665
G1 X123.016 Y135.106 E3.24756
G1 X122.385 Y135.423 E3.27105
G1 X122.005 Y135.605 E3.28506
G1 X121.48 Y135.844 E3.30424
G1 X121.187 Y135.972 E3.31488
G1 X120.645 Y136.2 E3.33444
G1 X120.248 Y136.359 E3.34866
G1 X119.838 Y136.513 E3.36323
G1 X119.559 Y136.613 E3.37308
G1 X118.739 Y136.896 E3.40194
G1 X118.332 Y137.028 E3.41617
G1 X117.872 Y137.167 E3.43215
G1 X117.53 Y137.264 E3.44397
G1 X117.081 Y137.384 E3.45943
G1 X116.731 Y137.471 E3.47143
G1 X116.133 Y137.61 E3.49185
G1 X115.716 Y137.699 E3.50603
G1 X115.247 Y137.789 E3.52191
G1 X114.968 Y137.839 E3.53134
G1 X114.097 Y137.983 E3.5607
G1 X113.719 Y138.039 E3.57341
G1 X113.326 Y138.09 E3.58659
G1 X112.916 Y138.135 E3.60031
G1 X112.339 Y138.188 E3.61958
G1 X111.972 Y138.215 E3.63182
G1 X111.336 Y138.252 E3.65301
G1 X110.97 Y138.268 E3.6652
G1 X110.487 Y138.28 E3.68127
G1 X110.112 Y138.283 E3.69374
G1 X109.248 Y138.275 E3.72248
G1 X108.569 Y138.247 E3.74508
G1 X107.53 Y138.173 E3.77973
G1 X107.111 Y138.135 E3.79372
G1 X106.628 Y138.082 E3.80988
G1 X106.263 Y138.036 E3.82212
G1 X105.609 Y137.942 E3.84409
G1 X105.248 Y137.884 E3.85625
G1 X104.832 Y137.81 E3.87031
G1 X104.47 Y137.739 E3.88258
G1 X103.76 Y137.588 E3.90672
G1 X103.391 Y137.503 E3.91931
G1 X102.933 Y137.389 E3.93501
G1 X102.596 Y137.3 E3.9466
G1 X102.041 Y137.143 E3.96579
G1 X101.669 Y137.03 E3.97872
G1 X101.025 Y136.823 E4.00122
G1 X100.696 Y136.712 E4.01277
G1 X100.253 Y136.554 E4.02841
G1 X99.876 Y136.412 E4.04181
G1 X99.226 Y136.153 E4.06508
G1 X98.899 Y136.016 E4.07687
G1 X98.436 Y135.814 E4.09367
G1 X98.113 Y135.667 E4.10548
G1 X97.627 Y135.436 E4.12337
G1 X97.274 Y135.26 E4.13649
G1 X96.624 Y134.922 E4.16086
G1 X96.293 Y134.743 E4.17338
G1 X95.85 Y134.493 E4.1903
G1 X95.56 Y134.323 E4.20148
G1 X95.185 Y134.096 E4.21606
G1 X94.879 Y133.904 E4.22807
G1 X94.277 Y133.512 E4.25196
G1 X93.939 Y133.283 E4.26554
G1 X93.403 Y132.905 E4.28736
G1 X93.101 Y132.684 E4.2998
G1 X92.8 Y132.456 E4.31236
G1 X92.535 Y132.249 E4.32355
G1 X91.94 Y131.769 E4.34897
G1 X91.626 Y131.506 E4.3626
G1 X91.364 Y131.278 E4.37415
G1 X91.101 Y131.041 E4.38592
G1 X90.612 Y130.587 E4.40812
G1 X90.373 Y130.359 E4.4191
G1 X89.802 Y129.796 E4.44577
G1 X89.538 Y129.527 E4.45831
G1 X89.216 Y129.187 E4.47389
G1 X88.941 Y128.885 E4.48747
G1 X88.607 Y128.505 E4.5043
G1 X88.386 Y128.245 E4.51565
G1 X88.022 Y127.804 E4.53467
G1 X87.774 Y127.494 E4.54787
G1 X87.262 Y126.826 E4.57586
G1 X86.999 Y126.472 E4.59053
G1 X86.699 Y126.043 E4.60794
G1 X86.299 Y125.442 E4.63195
G1 X86.111 Y125.15 E4.6435
G1 X85.875 Y124.77 E4.65838
G1 X85.677 Y124.439 E4.67121
G1 X85.259 Y123.71 E4.69916
G1 X85.085 Y123.394 E4.71116
G1 X84.938 Y123.117 E4.72159
G1 X84.757 Y122.76 E4.7349
G1 X84.517 Y122.265 E4.7532
G1 X84.395 Y122.004 E4.76278
G1 X84.015 Y121.165 E4.79342
G1 X83.846 Y120.773 E4.80761
G1 X83.682 Y120.37 E4.82208
G1 X83.549 Y120.027 E4.83432
G1 X83.409 Y119.647 E4.84779
G1 X83.278 Y119.271 E4.86103
G1 X83.078 Y118.661 E4.88238
G1 X82.987 Y118.37 E4.89252
G1 X82.744 Y117.553 E4.92087
G1 X82.63 Y117.138 E4.93519
G1 X82.534 Y116.762 E4.9481
G1 X82.458 Y116.444 E4.95897
G1 X82.336 Y115.899 E4.97755
G1 X82.26 Y115.534 E4.98995
G1 X82.155 Y114.977 E5.0088
G1 X82.085 Y114.561 E5.02283
G1 X82.023 Y114.145 E5.03682
G1 X81.986 Y113.87 E5.04605
G1 X81.884 Y113.043 E5.07376
G1 X81.836 Y112.578 E5.08931
G1 X81.804 Y112.18 E5.10259
G1 X81.786 Y111.916 E5.11139
G1 X81.736 Y111.027 E5.14101
G1 X81.721 Y110.592 E5.15548
G1 X81.715 Y110.231 E5.16749
G1 X81.715 Y109.831 E5.1808
G1 X81.723 Y109.426 E5.19427
G1 X81.733 Y109.137 E5.20389
G1 X81.774 Y108.247 E5.23352
G1 X81.802 Y107.813 E5.24798
G1 X81.864 Y107.09 E5.27212
G1 X81.905 Y106.686 E5.28563
G1 X81.971 Y106.167 E5.30303
G1 X82.072 Y105.506 E5.32527
G1 X82.135 Y105.14 E5.33762
G1 X82.268 Y104.431 E5.36161
G1 X82.337 Y104.089 E5.37322
G1 X82.414 Y103.74 E5.3851
G1 X82.509 Y103.346 E5.39858
G1 X82.658 Y102.772 E5.41831
G1 X82.739 Y102.478 E5.42845
G1 X82.985 Y101.628 E5.45788
G1 X83.098 Y101.259 E5.47072
G1 X83.218 Y100.893 E5.48353
G1 X83.351 Y100.512 E5.49695
G1 X83.52 Y100.054 E5.51319
G1 X83.661 Y99.692 E5.52611
G1 X83.881 Y99.155 E5.54541
G1 X84.006 Y98.862 E5.556
G1 X84.358 Y98.069 E5.58486
G1 X84.514 Y97.734 E5.59715
G1 X84.657 Y97.439 E5.60806
G1 X84.839 Y97.08 E5.62144
G1 X85.253 Y96.3 E5.65081
G1 X85.45 Y95.941 E5.66443
G1 X85.72 Y95.482 E5.68215
G1 X86.109 Y94.856 E5.70666
G1 X86.29 Y94.574 E5.7178
G1 X86.601 Y94.106 E5.73649
G1 X86.823 Y93.785 E5.74947
G1 X87.208 Y93.248 E5.77145
G1 X87.426 Y92.954 E5.78362
G1 X87.705 Y92.591 E5.79885
G1 X87.921 Y92.319 E5.8104
G1 X88.34 Y91.808 E5.83238
G1 X88.592 Y91.512 E5.84531
G1 X88.969 Y91.084 E5.86428
G1 X89.212 Y90.817 E5.87629
G1 X89.642 Y90.36 E5.89716
G1 X89.928 Y90.067 E5.91078
M204 S2000
G0 F7500 X90.209 Y90.352
M204 S500
G1 F1500 X90.503 Y90.062 E5.92452
G1 X90.728 Y89.846 E5.93489
G1 X91.314 Y89.301 E5.96151
G1 X91.605 Y89.04 E5.97451
G1 X91.942 Y88.749 E5.98932
G1 X92.19 Y88.542 E6.00006
G1 X92.689 Y88.137 E6.02144
G1 X92.988 Y87.903 E6.03406
G1 X93.366 Y87.618 E6.04981
G1 X93.647 Y87.413 E6.06138
G1 X94.278 Y86.969 E6.08704
G1 X94.574 Y86.768 E6.09894
G1 X94.924 Y86.539 E6.11285
G1 X95.231 Y86.346 E6.12491
G1 X95.752 Y86.03 E6.14518
G1 X96.036 Y85.864 E6.15612
G1 X96.599 Y85.546 E6.17763
G1 X96.93 Y85.366 E6.19016
G1 X97.379 Y85.133 E6.20698
G1 X97.692 Y84.977 E6.21862
G1 X98.276 Y84.698 E6.24014
G1 X98.614 Y84.544 E6.2525
G1 X98.993 Y84.379 E6.26624
G1 X99.318 Y84.244 E6.27795
G1 X100.249 Y83.875 E6.31126
G1 X100.644 Y83.726 E6.3253
G1 X101.003 Y83.6 E6.33795
G1 X101.519 Y83.43 E6.35602
G1 X101.936 Y83.303 E6.37052
G1 X102.516 Y83.138 E6.39058
G1 X102.878 Y83.041 E6.40304
G1 X103.393 Y82.914 E6.42069
G1 X103.652 Y82.854 E6.42953
G1 X104.438 Y82.681 E6.4563
G1 X104.89 Y82.592 E6.47162
G1 X105.33 Y82.515 E6.48647
G1 X105.596 Y82.472 E6.49544
G1 X106.375 Y82.356 E6.52163
G1 X106.789 Y82.302 E6.53552
G1 X107.331 Y82.243 E6.55365
G1 X107.649 Y82.213 E6.56428
G1 X108.044 Y82.182 E6.57745
G1 X108.432 Y82.159 E6.59038
G1 X109.248 Y82.125 E6.61755
G1 X109.604 Y82.116 E6.62939
G1 X109.98 Y82.113 E6.6419
G1 X110.318 Y82.116 E6.65314
G1 X110.947 Y82.131 E6.67406
G1 X111.324 Y82.147 E6.68662
G1 X111.895 Y82.181 E6.70564
G1 X112.239 Y82.207 E6.71711
G1 X112.651 Y82.245 E6.73088
G1 X112.98 Y82.28 E6.74188
G1 X113.941 Y82.399 E6.77409
G1 X114.303 Y82.451 E6.78625
G1 X114.718 Y82.517 E6.80023
G1 X115.068 Y82.578 E6.81204
G1 X115.6 Y82.681 E6.83007
G1 X115.988 Y82.764 E6.84326
G1 X116.568 Y82.899 E6.86307
G1 X116.897 Y82.981 E6.87435
G1 X117.448 Y83.128 E6.89332
G1 X117.765 Y83.218 E6.90428
G1 X118.301 Y83.379 E6.92289
G1 X118.666 Y83.496 E6.93564
G1 X119.248 Y83.694 E6.95608
G1 X119.571 Y83.81 E6.9675
G1 X120.147 Y84.027 E6.98797
G1 X120.494 Y84.164 E7.00038
G1 X120.961 Y84.359 E7.01721
G1 X121.276 Y84.497 E7.02865
G1 X121.846 Y84.757 E7.04949
G1 X122.166 Y84.909 E7.06127
G1 X122.689 Y85.169 E7.0807
G1 X123 Y85.33 E7.09234
G1 X123.486 Y85.592 E7.11071
G1 X123.819 Y85.78 E7.12343
G1 X124.339 Y86.085 E7.14348
G1 X124.624 Y86.258 E7.15457
G1 X125.102 Y86.559 E7.17335
G1 X125.394 Y86.75 E7.18496
G1 X125.929 Y87.112 E7.20644
G1 X126.254 Y87.341 E7.21967
G1 X126.602 Y87.596 E7.23402
G1 X126.851 Y87.783 E7.24437
G1 X127.439 Y88.241 E7.26916
G1 X127.728 Y88.475 E7.28153
G1 X128.059 Y88.752 E7.29589
G1 X128.327 Y88.984 E7.30768
G1 X128.891 Y89.489 E7.33286
G1 X129.159 Y89.738 E7.34502
G1 X129.357 Y89.928 E7.35415
G1 X129.628 Y90.197 E7.36685
G1 X130.139 Y90.724 E7.39127
G1 X130.326 Y90.922 E7.40032
G1 X130.851 Y91.492 E7.4261
G1 X131.123 Y91.799 E7.43974
G1 X131.405 Y92.13 E7.4542
G1 X131.624 Y92.396 E7.46566
G1 X132.033 Y92.909 E7.48749
G1 X132.251 Y93.192 E7.49937
G1 X132.512 Y93.543 E7.51392
G1 X132.728 Y93.845 E7.52626
G1 X133.094 Y94.375 E7.54769
G1 X133.287 Y94.664 E7.55925
G1 X133.624 Y95.188 E7.57997
G1 X133.809 Y95.486 E7.59163
G1 X134.079 Y95.938 E7.60914
G1 X134.26 Y96.253 E7.62123
G1 X134.521 Y96.726 E7.6392
G1 X134.692 Y97.049 E7.65135
G1 X135.095 Y97.843 E7.68097
G1 X135.283 Y98.229 E7.69525
G1 X135.476 Y98.655 E7.7108
G1 X135.721 Y99.229 E7.73156
G1 X135.854 Y99.555 E7.74327
G1 X136.076 Y100.127 E7.76368
G1 X136.207 Y100.482 E7.77626
G1 X136.509 Y101.351 E7.80686
G1 X136.622 Y101.691 E7.81878
G1 X136.766 Y102.17 E7.83542
G1 X136.948 Y102.831 E7.85822
G1 X137.035 Y103.171 E7.86989
G1 X137.173 Y103.746 E7.88956
G1 X137.249 Y104.085 E7.90111
G1 X137.373 Y104.688 E7.92159
G1 X137.439 Y105.039 E7.93347
G1 X137.522 Y105.525 E7.94987
G1 X137.58 Y105.904 E7.96262
G1 X137.701 Y106.809 E7.99299
G1 X137.742 Y107.155 E8.00458
G1 X137.788 Y107.656 E8.02131
G1 X137.835 Y108.352 E8.04451
G1 X137.854 Y108.73 E8.0571
G1 X137.885 Y109.754 E8.09117
G1 X137.887 Y109.883 E8.09546
G1 X137.881 Y110.426 E8.11353
G1 X137.859 Y111.041 E8.13399
G1 X137.846 Y111.319 E8.14325
G1 X137.786 Y112.285 E8.17544
G1 X137.755 Y112.663 E8.18806
G1 X137.719 Y113.03 E8.20032
G1 X137.675 Y113.41 E8.21304
G1 X137.592 Y114.026 E8.23372
G1 X137.537 Y114.385 E8.2458
G1 X137.437 Y114.974 E8.26567
G1 X137.376 Y115.304 E8.27683
G1 X137.28 Y115.778 E8.29292
G1 X137.199 Y116.145 E8.30542
G1 X137.03 Y116.85 E8.32953
G1 X136.936 Y117.212 E8.34197
G1 X136.827 Y117.605 E8.35553
G1 X136.737 Y117.913 E8.3662
G1 X136.517 Y118.622 E8.3909
G1 X136.397 Y118.985 E8.40361
G1 X136.218 Y119.496 E8.42162
G1 X136.099 Y119.819 E8.43307
G1 X135.912 Y120.302 E8.4503
G1 X135.776 Y120.637 E8.46232
G1 X135.545 Y121.178 E8.48189
G1 X135.406 Y121.49 E8.49325
G1 X135.129 Y122.085 E8.51508
