;FLAVOR:Marlin
;TIME:15227
;Filament used: 10.417m
;Layer height: 0.2
;MINX:78.92
;MINY:20.257
;MINZ:0.2
;MAXX:139.727
;MAXY:199.744
;MAXZ:20
;Generated with Creality Slicer 4.8.2-188
M140 S60
M105
M190 S60
M104 S200
M105
M109 S200
M82 ;absolute extrusion mode

G28 ;Home

G92 E0 ;Reset Extruder
G1 Z2.0 F3000 ;Move Z Axis up
G1 X10.1 Y20 Z0.28 F5000.0 ;Move to start position
G1 X10.1 Y200.0 Z0.28 F1500.0 E15 ;Draw the first line
G1 X10.4 Y200.0 Z0.28 F5000.0 ;Move to side a little
G1 X10.4 Y20 Z0.28 F1500.0 E30 ;Draw the second line
G92 E0 ;Reset Extruder
G1 Z2.0 F3000 ;Move Z Axis up

G92 E0
G92 E0
G1 F2400 E-0.8
;LAYER_COUNT:100
;LAYER:0
M107
M204 S2000
G0 F7500 X79.542 Y27.893 Z0.2
M204 S500
;TYPE:SKIRT
G1 F2400 E0
G1 F1500 X79.89 Y27.022 E0.0312
G1 X80.311 Y26.184 E0.06239
G1 X80.802 Y25.385 E0.09358
G1 X81.36 Y24.631 E0.12478
G1 X81.979 Y23.927 E0.15596
G1 X82.657 Y23.278 E0.18717
G1 X83.387 Y22.689 E0.21837
G1 X84.164 Y22.165 E0.24954
G1 X84.984 Y21.709 E0.28075
G1 X85.839 Y21.324 E0.31194
G1 X86.724 Y21.014 E0.34312
G1 X87.632 Y20.78 E0.37431
G1 X88.557 Y20.624 E0.40551
G1 X89.363 Y20.553 E0.43242
G1 X89.659 Y20.538 E0.44228
G1 X90.024 Y20.526 E0.45443
G1 X105.259 Y20.26 E0.96122
G1 X105.915 Y20.257 E0.98304
G1 X106.319 Y20.263 E0.99648
G1 X106.661 Y20.274 E1.00786
G1 X107.101 Y20.297 E1.02252
G1 X107.681 Y20.339 E1.04186
G1 X108.949 Y20.505 E1.08439
G1 X109.672 Y20.643 E1.10887
G1 X110.075 Y20.728 E1.12257
G1 X110.349 Y20.791 E1.13192
G1 X111.524 Y21.131 E1.17261
G1 X112.1 Y21.333 E1.19291
G1 X112.476 Y21.472 E1.20624
G1 X112.81 Y21.603 E1.21817
G1 X113.937 Y22.12 E1.25941
G1 X114.576 Y22.458 E1.28346
G1 X114.886 Y22.629 E1.29523
G1 X115.119 Y22.762 E1.30416
G1 X116.23 Y23.488 E1.3483
G1 X116.78 Y23.897 E1.37109
G1 X117.022 Y24.082 E1.38123
G1 X117.262 Y24.271 E1.39139
G1 X118.258 Y25.159 E1.43577
G1 X118.743 Y25.647 E1.45865
G1 X118.973 Y25.885 E1.46966
G1 X119.177 Y26.103 E1.47959
G1 X119.999 Y27.092 E1.52236
G1 X120.4 Y27.636 E1.54484
G1 X120.627 Y27.955 E1.55786
G1 X120.841 Y28.268 E1.57047
G1 X121.081 Y28.631 E1.58495
G1 X121.237 Y28.878 E1.59466
G1 X121.442 Y29.211 E1.60767
G1 X135.178 Y52.071 E2.4947
G1 X135.486 Y52.599 E2.51503
G1 X135.675 Y52.935 E2.52785
G1 X136.088 Y53.704 E2.55688
G1 X136.262 Y54.042 E2.56953
G1 X136.373 Y54.267 E2.57787
G1 X136.727 Y55.064 E2.60688
G1 X136.821 Y55.3 E2.61533
G1 X137.005 Y55.795 E2.63289
G1 X137.204 Y56.374 E2.65325
G1 X137.482 Y57.318 E2.68598
G1 X137.549 Y57.59 E2.6953
G1 X137.644 Y58.012 E2.70969
G1 X137.76 Y58.578 E2.72891
G1 X137.917 Y59.576 E2.76251
G1 X137.95 Y59.874 E2.77248
G1 X137.992 Y60.34 E2.78804
G1 X138.015 Y60.679 E2.79934
G1 X138.033 Y61.021 E2.81073
G1 X138.075 Y62.168 E2.84891
G1 X139.723 Y156.495 E5.98672
G1 X139.727 Y157.064 E6.00564
G1 X139.722 Y157.447 E6.01838
G1 X139.697 Y158.275 E6.04593
G1 X139.68 Y158.632 E6.05782
G1 X139.663 Y158.903 E6.06685
G1 X139.567 Y159.822 E6.09758
G1 X139.537 Y160.025 E6.10441
G1 X139.473 Y160.414 E6.11752
G1 X139.423 Y160.681 E6.12656
G1 X139.311 Y161.24 E6.14552
G1 X139.105 Y162.091 E6.17464
G1 X139.027 Y162.365 E6.18412
G1 X138.877 Y162.849 E6.20097
G1 X138.697 Y163.386 E6.21981
G1 X138.323 Y164.348 E6.25414
G1 X138.194 Y164.639 E6.26472
G1 X138.019 Y165.015 E6.27852
G1 X137.883 Y165.293 E6.28881
G1 X137.717 Y165.618 E6.30095
G1 X137.177 Y166.635 E6.33925
G1 X137.083 Y166.808 E6.34579
G1 X124.271 Y189.924 E7.22483
G1 X123.925 Y190.527 E7.24795
G1 X123.781 Y190.77 E7.25735
G1 X123.652 Y190.982 E7.2656
G1 X123.427 Y191.338 E7.27961
G1 X123.284 Y191.555 E7.28825
G1 X122.983 Y191.999 E7.30609
G1 X122.207 Y193.011 E7.34851
G1 X121.73 Y193.564 E7.3728
G1 X121.462 Y193.864 E7.38618
G1 X121.28 Y194.06 E7.39507
G1 X120.388 Y194.918 E7.43624
G1 X119.869 Y195.364 E7.459
G1 X119.581 Y195.603 E7.47145
G1 X119.354 Y195.785 E7.48112
G1 X118.31 Y196.527 E7.52372
G1 X117.703 Y196.907 E7.54754
G1 X117.402 Y197.089 E7.55924
G1 X117.141 Y197.241 E7.56929
G1 X115.979 Y197.828 E7.61259
G1 X115.379 Y198.088 E7.63434
G1 X115.067 Y198.218 E7.64558
G1 X114.77 Y198.336 E7.65621
G1 X113.535 Y198.744 E7.69947
G1 X112.892 Y198.915 E7.7216
G1 X112.6 Y198.988 E7.73161
G1 X112.296 Y199.06 E7.742
G1 X110.966 Y199.29 E7.78689
G1 X110.249 Y199.369 E7.81088
G1 X109.92 Y199.4 E7.82187
G1 X109.582 Y199.427 E7.83315
G1 X109.227 Y199.45 E7.84498
G1 X108.774 Y199.469 E7.86006
G1 X108.508 Y199.476 E7.86891
G1 X93.384 Y199.74 E8.37202
G1 X92.734 Y199.744 E8.39364
G1 X91.796 Y199.71 E8.42486
G1 X90.866 Y199.596 E8.45602
G1 X89.948 Y199.403 E8.48722
G1 X89.05 Y199.133 E8.51841
G1 X88.178 Y198.787 E8.54961
G1 X87.339 Y198.368 E8.5808
G1 X86.538 Y197.879 E8.61202
G1 X85.782 Y197.324 E8.64321
G1 X85.076 Y196.706 E8.67442
G1 X84.426 Y196.031 E8.70558
G1 X83.835 Y195.303 E8.73677
G1 X83.308 Y194.526 E8.768
G1 X82.85 Y193.708 E8.79918
G1 X82.463 Y192.854 E8.83036
G1 X82.15 Y191.97 E8.86155
G1 X81.913 Y191.062 E8.89277
G1 X81.755 Y190.138 E8.92394
G1 X81.68 Y189.29 E8.95226
G1 X81.665 Y188.988 E8.96232
G1 X81.653 Y188.634 E8.9741
G1 X81.208 Y163.097 E9.82359
G1 X81.206 Y162.435 E9.84561
G1 X81.243 Y161.498 E9.8768
G1 X81.36 Y160.568 E9.90797
G1 X81.556 Y159.65 E9.93919
G1 X81.829 Y158.753 E9.97038
G1 X82.177 Y157.882 E10.00158
G1 X82.594 Y157.053 E10.03244
G1 X82.731 Y156.809 E10.04175
G1 X83.89 Y154.787 E10.11926
G1 X85.084 Y152.56 E10.20331
G1 X86.208 Y150.312 E10.2869
G1 X87.265 Y148.038 E10.37031
G1 X88.275 Y145.696 E10.45514
G1 X89.196 Y143.383 E10.53794
G1 X90.058 Y141.027 E10.62138
G1 X90.861 Y138.623 E10.70568
G1 X91.586 Y136.226 E10.78898
G1 X92.259 Y133.754 E10.87419
G1 X92.847 Y131.319 E10.9575
G1 X93.365 Y128.886 E11.04024
G1 X93.816 Y126.412 E11.12388
G1 X94.201 Y123.913 E11.20798
G1 X94.514 Y121.406 E11.29201
G1 X94.752 Y118.931 E11.37471
G1 X94.925 Y116.383 E11.45965
G1 X95.024 Y113.886 E11.54276
G1 X95.052 Y111.367 E11.62655
G1 X95.009 Y108.874 E11.70948
G1 X94.894 Y106.33 E11.79418
G1 X94.707 Y103.815 E11.87806
G1 X94.453 Y101.316 E11.96161
G1 X94.126 Y98.83 E12.045
G1 X93.73 Y96.35 E12.12853
G1 X93.261 Y93.872 E12.21242
G1 X92.726 Y91.418 E12.29595
G1 X92.117 Y88.966 E12.37999
G1 X91.447 Y86.561 E12.46302
G1 X90.695 Y84.131 E12.54763
G1 X89.879 Y81.734 E12.63184
G1 X89.011 Y79.403 E12.71457
G1 X88.06 Y77.054 E12.79886
G1 X87.057 Y74.768 E12.88189
G1 X85.966 Y72.458 E12.96686
G1 X84.848 Y70.257 E13.04897
G1 X83.623 Y68.001 E13.13435
G1 X82.366 Y65.838 E13.21756
G1 X81.593 Y64.573 E13.26687
G1 X81.041 Y63.686 E13.30161
G1 X80.58 Y62.869 E13.33282
G1 X80.19 Y62.016 E13.36401
G1 X79.875 Y61.133 E13.39519
G1 X79.636 Y60.226 E13.42639
G1 X79.475 Y59.302 E13.45758
G1 X79.396 Y58.432 E13.48664
G1 X79.381 Y58.135 E13.49653
G1 X79.369 Y57.772 E13.50861
G1 X78.922 Y32.18 E14.35993
G1 X78.92 Y31.575 E14.38006
G1 X78.957 Y30.638 E14.41125
G1 X79.074 Y29.708 E14.44242
G1 X79.269 Y28.79 E14.47364
G1 X79.542 Y27.893 E14.50482
M204 S2000
G0 F7500 X79.942 Y27.962
M204 S500
G1 F1500 X80.29 Y27.11 E14.53543
G1 X80.711 Y26.291 E14.56606
G1 X81.201 Y25.511 E14.5967
G1 X81.757 Y24.777 E14.62732
G1 X82.374 Y24.095 E14.65791
G1 X83.049 Y23.468 E14.68855
G1 X83.775 Y22.902 E14.71917
G1 X84.547 Y22.401 E14.74978
G1 X85.361 Y21.97 E14.78042
G1 X86.208 Y21.61 E14.81103
G1 X87.084 Y21.326 E14.84166
G1 X87.981 Y21.118 E14.87228
G1 X88.892 Y20.989 E14.90288
G1 X89.384 Y20.953 E14.91929
G1 X89.68 Y20.938 E14.92915
G1 X90.031 Y20.926 E14.94083
G1 X105.261 Y20.66 E15.44746
G1 X105.917 Y20.657 E15.46928
G1 X106.306 Y20.662 E15.48222
G1 X106.648 Y20.673 E15.4936
G1 X107.073 Y20.696 E15.50775
G1 X107.653 Y20.738 E15.5271
G1 X108.874 Y20.898 E15.56805
G1 X109.597 Y21.036 E15.59253
G1 X109.985 Y21.118 E15.60572
G1 X110.259 Y21.181 E15.61508
G1 X111.392 Y21.508 E15.6543
G1 X111.968 Y21.71 E15.6746
G1 X112.33 Y21.845 E15.68745
G1 X112.664 Y21.976 E15.69938
G1 X113.75 Y22.474 E15.73912
G1 X114.389 Y22.812 E15.76316
G1 X114.688 Y22.976 E15.77451
G1 X114.921 Y23.109 E15.78343
G1 X115.991 Y23.809 E15.82596
G1 X116.541 Y24.218 E15.84875
G1 X116.774 Y24.396 E15.85851
G1 X117.014 Y24.585 E15.86867
G1 X117.974 Y25.441 E15.91145
G1 X118.459 Y25.929 E15.93433
G1 X118.681 Y26.158 E15.94494
G1 X118.885 Y26.376 E15.95487
G1 X119.677 Y27.329 E15.99608
G1 X120.078 Y27.873 E16.01856
G1 X120.296 Y28.18 E16.03108
G1 X120.637 Y28.682 E16.05127
G1 X120.746 Y28.849 E16.0579
G1 X120.897 Y29.088 E16.0673
G1 X121.099 Y29.418 E16.08017
G1 X134.906 Y52.397 E16.97181
G1 X135.141 Y52.8 E16.98732
G1 X135.322 Y53.125 E16.9997
G1 X135.735 Y53.894 E17.02873
G1 X135.903 Y54.219 E17.0409
G1 X136.014 Y54.444 E17.04924
G1 X136.356 Y55.212 E17.0772
G1 X136.45 Y55.448 E17.08565
G1 X136.626 Y55.925 E17.10256
G1 X136.825 Y56.504 E17.12293
G1 X137.093 Y57.414 E17.15448
G1 X137.16 Y57.686 E17.1638
G1 X137.252 Y58.093 E17.17768
G1 X137.368 Y58.659 E17.19689
G1 X137.52 Y59.62 E17.22925
G1 X137.553 Y59.918 E17.23922
G1 X137.593 Y60.367 E17.25422
G1 X137.616 Y60.706 E17.26552
G1 X137.633 Y61.036 E17.27651
G1 X137.675 Y62.183 E17.31468
G1 X137.68 Y62.386 E17.32144
G1 X139.325 Y156.637 E20.45672
G1 X139.327 Y157.065 E20.47095
G1 X139.322 Y157.435 E20.48326
G1 X139.297 Y158.263 E20.51081
G1 X139.281 Y158.607 E20.52226
G1 X139.264 Y158.878 E20.5313
G1 X139.171 Y159.764 E20.56093
G1 X139.097 Y160.242 E20.57701
G1 X139.03 Y160.602 E20.58919
G1 X138.918 Y161.161 E20.60816
G1 X138.72 Y161.981 E20.63621
G1 X138.642 Y162.255 E20.64569
G1 X138.497 Y162.722 E20.66195
G1 X138.317 Y163.259 E20.68079
G1 X137.958 Y164.186 E20.71385
G1 X137.829 Y164.477 E20.72444
G1 X137.66 Y164.839 E20.73773
G1 X137.524 Y165.117 E20.74802
G1 X137.364 Y165.43 E20.75971
G1 X136.824 Y166.447 E20.79801
G1 X124.001 Y189.587 E21.67792
G1 X123.578 Y190.327 E21.70627
G1 X123.439 Y190.562 E21.71535
G1 X123.167 Y191.004 E21.73261
G1 X122.953 Y191.33 E21.74558
G1 X122.652 Y191.774 E21.76342
G1 X121.905 Y192.749 E21.80428
G1 X121.428 Y193.302 E21.82857
G1 X121.169 Y193.592 E21.8415
G1 X120.987 Y193.788 E21.8504
G1 X120.128 Y194.614 E21.89003
G1 X119.609 Y195.06 E21.91279
G1 X119.331 Y195.291 E21.92481
G1 X119.104 Y195.473 E21.93449
G1 X118.098 Y196.188 E21.97554
G1 X117.491 Y196.568 E21.99936
G1 X117.2 Y196.743 E22.01065
G1 X116.939 Y196.895 E22.0207
G1 X115.82 Y197.461 E22.06241
G1 X115.22 Y197.721 E22.08416
G1 X114.919 Y197.846 E22.095
G1 X114.622 Y197.964 E22.10563
G1 X113.432 Y198.357 E22.14731
G1 X112.789 Y198.528 E22.16944
G1 X112.508 Y198.599 E22.17908
G1 X112.204 Y198.671 E22.18947
G1 X110.922 Y198.892 E22.23274
G1 X110.205 Y198.971 E22.25673
G1 X109.888 Y199.001 E22.26732
G1 X109.55 Y199.028 E22.2786
G1 X109.208 Y199.05 E22.29
G1 X108.762 Y199.069 E22.30484
G1 X108.501 Y199.076 E22.31353
G1 X93.381 Y199.34 E22.8165
G1 X92.731 Y199.344 E22.83812
G1 X91.811 Y199.309 E22.86874
G1 X90.898 Y199.195 E22.89934
G1 X89.997 Y199.003 E22.92998
G1 X89.117 Y198.732 E22.96061
G1 X88.264 Y198.387 E22.99121
G1 X87.444 Y197.968 E23.02184
G1 X86.663 Y197.48 E23.05247
G1 X85.928 Y196.927 E23.08306
G1 X85.243 Y196.311 E23.1137
G1 X84.615 Y195.638 E23.14432
G1 X84.047 Y194.914 E23.17492
G1 X83.544 Y194.143 E23.20554
G1 X83.11 Y193.331 E23.23616
G1 X82.748 Y192.484 E23.2668
G1 X82.461 Y191.609 E23.29743
G1 X82.251 Y190.713 E23.32804
G1 X82.119 Y189.802 E23.35865
G1 X82.079 Y189.27 E23.3764
G1 X82.064 Y188.968 E23.38645
G1 X82.053 Y188.627 E23.3978
G1 X81.608 Y163.096 E24.2471
G1 X81.606 Y162.434 E24.26911
G1 X81.643 Y161.514 E24.29974
G1 X81.76 Y160.601 E24.33035
G1 X81.956 Y159.701 E24.36099
G1 X82.229 Y158.822 E24.3916
G1 X82.577 Y157.97 E24.42221
G1 X82.943 Y157.248 E24.44914
G1 X83.078 Y157.008 E24.45829
G1 X84.247 Y154.968 E24.5365
G1 X85.437 Y152.749 E24.62024
G1 X86.565 Y150.494 E24.7041
G1 X87.638 Y148.186 E24.78876
G1 X88.63 Y145.884 E24.87213
G1 X89.579 Y143.501 E24.95744
G1 X90.438 Y141.154 E25.04057
G1 X91.237 Y138.76 E25.12451
G1 X91.972 Y136.331 E25.20892
G1 X92.637 Y133.888 E25.29313
G1 X93.243 Y131.382 E25.37888
G1 X93.754 Y128.976 E25.46069
G1 X94.211 Y126.473 E25.54532
G1 X94.598 Y123.956 E25.63002
G1 X94.911 Y121.458 E25.71375
G1 X95.151 Y118.96 E25.79722
G1 X95.323 Y116.425 E25.88172
G1 X95.424 Y113.871 E25.96674
G1 X95.452 Y111.364 E26.05012
G1 X95.409 Y108.848 E26.13382
G1 X95.294 Y106.32 E26.21799
G1 X95.106 Y103.778 E26.30277
G1 X94.853 Y101.294 E26.38581
G1 X94.518 Y98.746 E26.47129
G1 X94.125 Y96.284 E26.55421
G1 X93.652 Y93.784 E26.63884
G1 X93.12 Y91.349 E26.72174
G1 X92.502 Y88.859 E26.80707
G1 X91.822 Y86.418 E26.89135
G1 X91.081 Y84.021 E26.97479
G1 X90.261 Y81.614 E27.05937
G1 X89.38 Y79.25 E27.14328
G1 X88.433 Y76.909 E27.22727
G1 X87.414 Y74.585 E27.31167
G1 X86.341 Y72.313 E27.39524
G1 X85.183 Y70.035 E27.48023
G1 X83.992 Y67.841 E27.56326
G1 X82.694 Y65.608 E27.64917
G1 X81.934 Y64.364 E27.69766
G1 X81.381 Y63.475 E27.73248
G1 X80.929 Y62.673 E27.7631
G1 X80.548 Y61.834 E27.79375
G1 X80.242 Y60.966 E27.82436
G1 X80.012 Y60.074 E27.855
G1 X79.861 Y59.166 E27.88561
G1 X79.795 Y58.412 E27.91078
G1 X79.78 Y58.115 E27.92068
G1 X79.769 Y57.765 E27.93232
G1 X79.322 Y32.179 E28.78345
G1 X79.32 Y31.574 E28.80357
G1 X79.357 Y30.654 E28.83419
G1 X79.474 Y29.741 E28.86481
G1 X79.669 Y28.841 E28.89544
G1 X79.942 Y27.962 E28.92605
M204 S2000
G0 F7500 X80.342 Y28.032
M204 S500
G1 F1500 X80.69 Y27.199 E28.95608
G1 X81.11 Y26.399 E28.98613
G1 X81.599 Y25.64 E29.01616
G1 X82.153 Y24.927 E29.04619
G1 X82.768 Y24.266 E29.07622
G1 X83.44 Y23.662 E29.10627
G1 X84.162 Y23.12 E29.1363
G1 X84.929 Y22.643 E29.16634
G1 X85.736 Y22.237 E29.19639
G1 X86.575 Y21.903 E29.22642
G1 X87.44 Y21.645 E29.25644
G1 X88.325 Y21.464 E29.28649
G1 X89.404 Y21.352 E29.32257
G1 X89.7 Y21.337 E29.33243
G1 X90.038 Y21.326 E29.34367
G1 X105.262 Y21.06 E29.8501
G1 X105.918 Y21.057 E29.87192
G1 X106.293 Y21.062 E29.8844
G1 X106.635 Y21.073 E29.89578
G1 X107.044 Y21.095 E29.9094
G1 X107.624 Y21.137 E29.92874
G1 X108.799 Y21.291 E29.96816
G1 X109.522 Y21.429 E29.99264
G1 X109.896 Y21.507 E30.00534
G1 X110.17 Y21.57 E30.0147
G1 X111.26 Y21.886 E30.05244
G1 X111.836 Y22.088 E30.07274
G1 X112.184 Y22.217 E30.08509
G1 X112.518 Y22.348 E30.09702
G1 X113.563 Y22.828 E30.13527
G1 X114.202 Y23.166 E30.15931
G1 X114.49 Y23.324 E30.17024
G1 X114.723 Y23.457 E30.17916
G1 X115.753 Y24.13 E30.22008
G1 X116.303 Y24.539 E30.24288
G1 X116.527 Y24.711 E30.25227
G1 X116.767 Y24.9 E30.26243
G1 X117.691 Y25.723 E30.30359
G1 X118.176 Y26.211 E30.32647
G1 X118.389 Y26.432 E30.33668
G1 X118.593 Y26.65 E30.34661
G1 X119.355 Y27.567 E30.38627
G1 X119.756 Y28.111 E30.40875
G1 X119.966 Y28.406 E30.42079
G1 X120.302 Y28.901 E30.44069
G1 X120.411 Y29.068 E30.44732
G1 X120.556 Y29.297 E30.45634
G1 X120.756 Y29.624 E30.46908
G1 X134.56 Y52.599 E31.36056
G1 X134.795 Y53.002 E31.37607
G1 X134.97 Y53.314 E31.38797
G1 X135.383 Y54.083 E31.417
G1 X135.544 Y54.396 E31.42871
G1 X135.655 Y54.621 E31.43705
G1 X135.984 Y55.36 E31.46396
G1 X136.078 Y55.596 E31.47241
G1 X136.248 Y56.055 E31.48869
G1 X136.447 Y56.634 E31.50905
G1 X136.705 Y57.509 E31.53939
G1 X136.772 Y57.781 E31.54871
G1 X136.86 Y58.173 E31.56207
G1 X136.976 Y58.739 E31.58129
G1 X137.122 Y59.664 E31.61244
G1 X137.155 Y59.962 E31.62241
G1 X137.194 Y60.395 E31.63687
G1 X137.217 Y60.734 E31.64817
G1 X137.233 Y61.051 E31.65873
G1 X137.275 Y62.198 E31.6969
G1 X137.28 Y62.393 E31.70339
G1 X138.925 Y156.639 E34.8385
G1 X138.927 Y157.067 E34.85274
G1 X138.922 Y157.423 E34.86458
G1 X138.897 Y158.251 E34.89213
G1 X138.882 Y158.582 E34.90315
G1 X138.865 Y158.853 E34.91218
G1 X138.775 Y159.705 E34.94068
G1 X138.703 Y160.173 E34.95643
G1 X138.638 Y160.524 E34.9683
G1 X138.526 Y161.083 E34.98726
G1 X138.335 Y161.872 E35.01426
G1 X138.257 Y162.146 E35.02374
G1 X138.118 Y162.595 E35.03937
G1 X137.938 Y163.132 E35.05821
G1 X137.592 Y164.024 E35.09003
G1 X137.463 Y164.315 E35.10061
G1 X137.3 Y164.663 E35.1134
G1 X137.164 Y164.941 E35.12369
G1 X137.011 Y165.242 E35.13492
G1 X136.471 Y166.259 E35.17322
G1 X123.651 Y189.393 E36.05291
G1 X123.231 Y190.128 E36.08106
G1 X123.098 Y190.354 E36.08978
G1 X122.969 Y190.566 E36.09804
G1 X122.754 Y190.905 E36.11139
G1 X122.622 Y191.106 E36.11939
G1 X122.321 Y191.55 E36.13723
G1 X121.602 Y192.488 E36.17654
