;FLAVOR:Marlin
;TIME:2985
;Filament used: 1.66344m
;Layer height: 0.2
;MINX:85.497
;MINY:91.098
;MINZ:0.2
;MAXX:133.98
;MAXY:128.902
;MAXZ:42.6
;Generated with Creality Slicer 4.8.2-188
M140 S60
M105
M190 S60
M104 S200
M105
M109 S200
M82 ;absolute extrusion mode

G28 ;Home

G92 E0 ;Reset Extruder
G1 Z2.0 F3000 ;Move Z Axis up
G1 X10.1 Y20 Z0.28 F5000.0 ;Move to start position
G1 X10.1 Y200.0 Z0.28 F1500.0 E15 ;Draw the first line
G1 X10.4 Y200.0 Z0.28 F5000.0 ;Move to side a little
G1 X10.4 Y20 Z0.28 F1500.0 E30 ;Draw the second line
G92 E0 ;Reset Extruder
G1 Z2.0 F3000 ;Move Z Axis up

G92 E0
G92 E0
G1 F2400 E-0.8
;LAYER_COUNT:213
;LAYER:0
M107
M204 S2000
G0 F7500 X91.969 Y95.956 Z0.2
M204 S500
;TYPE:SKIRT
G1 F2400 E0
G1 F1500 X92.535 Y95.449 E0.02527
G1 X92.725 Y95.29 E0.03351
G1 X92.983 Y95.08 E0.04458
G1 X93.147 Y94.951 E0.05152
G1 X94.162 Y94.242 E0.0927
G1 X94.584 Y93.981 E0.1092
G1 X95.081 Y93.691 E0.12834
G1 X95.205 Y93.623 E0.13304
G1 X95.52 Y93.457 E0.14489
G1 X95.881 Y93.274 E0.15835
G1 X96.387 Y93.033 E0.17699
G1 X96.513 Y92.977 E0.18157
G1 X97.176 Y92.708 E0.20537
G1 X97.751 Y92.496 E0.22575
G1 X98.134 Y92.363 E0.23924
G1 X98.467 Y92.254 E0.25089
G1 X98.85 Y92.136 E0.26422
G1 X99.417 Y91.973 E0.28385
G1 X100.112 Y91.798 E0.30768
G1 X100.951 Y91.615 E0.33624
G1 X101.311 Y91.542 E0.34846
G1 X101.491 Y91.509 E0.35455
G1 X101.832 Y91.452 E0.36605
G1 X102.388 Y91.368 E0.38475
G1 X102.715 Y91.324 E0.39572
G1 X103.13 Y91.274 E0.40963
G1 X103.43 Y91.242 E0.41966
G1 X103.883 Y91.2 E0.43479
G1 X104.185 Y91.176 E0.44487
G1 X104.769 Y91.138 E0.46433
G1 X105.085 Y91.122 E0.47486
G1 X105.361 Y91.112 E0.48404
G1 X105.617 Y91.106 E0.49256
G1 X106.235 Y91.098 E0.51312
G1 X106.539 Y91.098 E0.52323
G1 X106.879 Y91.103 E0.53454
G1 X107.165 Y91.111 E0.54405
G1 X107.827 Y91.138 E0.56609
G1 X108.101 Y91.153 E0.57522
G1 X108.39 Y91.172 E0.58485
G1 X108.686 Y91.195 E0.59472
G1 X109.181 Y91.241 E0.61126
G1 X109.497 Y91.275 E0.62183
G1 X109.98 Y91.334 E0.63801
G1 X110.286 Y91.376 E0.64829
G1 X110.664 Y91.433 E0.661
G1 X110.976 Y91.485 E0.67152
G1 X111.525 Y91.584 E0.69008
G1 X111.94 Y91.666 E0.70415
G1 X112.347 Y91.758 E0.71802
G1 X113.187 Y91.966 E0.74681
G1 X113.541 Y92.06 E0.75899
G1 X113.714 Y92.109 E0.76497
G1 X113.992 Y92.192 E0.77462
G1 X114.989 Y92.504 E0.80937
G1 X116.175 Y92.889 E0.85084
G1 X118.588 Y93.599 E0.9345
G1 X121.06 Y94.25 E1.01952
G1 X123.066 Y94.723 E1.08807
G1 X123.44 Y94.807 E1.10082
G1 X123.727 Y94.876 E1.11064
G1 X123.976 Y94.939 E1.11918
G1 X124.29 Y95.023 E1.12999
G1 X124.578 Y95.105 E1.13995
G1 X125.416 Y95.381 E1.16929
G1 X125.598 Y95.449 E1.17576
G1 X126.081 Y95.642 E1.19306
G1 X126.298 Y95.735 E1.20091
G1 X127.458 Y96.316 E1.24406
G1 X127.916 Y96.58 E1.26164
G1 X128.708 Y97.082 E1.29283
G1 X129.79 Y97.942 E1.3388
G1 X130.045 Y98.172 E1.35022
G1 X130.714 Y98.829 E1.38141
G1 X131.535 Y99.817 E1.42413
G1 X131.711 Y100.056 E1.43401
G1 X132.297 Y100.936 E1.46917
G1 X132.346 Y101.018 E1.47235
G1 X132.792 Y101.843 E1.50354
G1 X133.166 Y102.703 E1.53473
G1 X133.466 Y103.592 E1.56594
G1 X133.654 Y104.332 E1.59133
G1 X133.732 Y104.692 E1.60358
G1 X133.891 Y105.616 E1.63477
G1 X133.971 Y106.55 E1.66595
G1 X133.98 Y107.186 E1.6871
G1 X133.956 Y108.728 E1.73839
G1 X133.954 Y108.799 E1.74076
G1 X133.954 Y111.294 E1.82374
G1 X133.968 Y111.862 E1.84264
G1 X133.98 Y112.861 E1.87587
G1 X133.951 Y113.798 E1.90705
G1 X133.769 Y115.143 E1.95219
G1 X133.709 Y115.444 E1.9624
G1 X133.486 Y116.356 E1.99363
G1 X133.187 Y117.244 E2.02479
G1 X132.813 Y118.105 E2.05601
G1 X132.397 Y118.881 E2.0853
G1 X132.216 Y119.188 E2.09715
G1 X131.705 Y119.975 E2.12836
G1 X131.13 Y120.715 E2.15953
G1 X130.518 Y121.379 E2.18956
G1 X130.431 Y121.466 E2.19366
G1 X130.116 Y121.769 E2.20819
G1 X129.959 Y121.914 E2.2153
G1 X129.244 Y122.52 E2.24647
G1 X128.367 Y123.136 E2.28212
G1 X127.955 Y123.396 E2.29832
G1 X127.141 Y123.862 E2.32952
G1 X126.48 Y124.176 E2.35386
G1 X125.98 Y124.394 E2.372
G1 X124.766 Y124.841 E2.41503
G1 X124.584 Y124.896 E2.42135
G1 X124.102 Y125.029 E2.43798
G1 X123.715 Y125.127 E2.45126
G1 X123.415 Y125.199 E2.46152
G1 X122.998 Y125.292 E2.47573
G1 X120.456 Y125.898 E2.56265
G1 X118.058 Y126.542 E2.64523
G1 X114.513 Y127.626 E2.76853
G1 X114.151 Y127.744 E2.78119
G1 X113.774 Y127.86 E2.79431
G1 X113.197 Y128.026 E2.81428
G1 X112.5 Y128.202 E2.83819
G1 X111.661 Y128.385 E2.86675
G1 X111.291 Y128.459 E2.8793
G1 X110.807 Y128.543 E2.89564
G1 X110.22 Y128.632 E2.91539
G1 X109.88 Y128.678 E2.9268
G1 X109.396 Y128.736 E2.94301
G1 X109.098 Y128.767 E2.95298
G1 X108.762 Y128.798 E2.9642
G1 X108.473 Y128.821 E2.97384
G1 X107.895 Y128.859 E2.99311
G1 X107.595 Y128.875 E3.0031
G1 X107.256 Y128.888 E3.01439
G1 X106.963 Y128.895 E3.02413
G1 X106.364 Y128.902 E3.04406
G1 X106.073 Y128.902 E3.05374
G1 X105.733 Y128.897 E3.06505
G1 X105.454 Y128.889 E3.07433
G1 X104.781 Y128.862 E3.09673
G1 X104.504 Y128.848 E3.10596
G1 X104.229 Y128.83 E3.11512
G1 X103.918 Y128.805 E3.1255
G1 X103.407 Y128.757 E3.14257
G1 X103.101 Y128.724 E3.15281
G1 X102.643 Y128.668 E3.16815
G1 X102.325 Y128.624 E3.17883
G1 X101.904 Y128.56 E3.19299
G1 X101.603 Y128.51 E3.20314
G1 X101.121 Y128.423 E3.21943
G1 X100.702 Y128.34 E3.23364
G1 X100.265 Y128.242 E3.24854
G1 X99.425 Y128.034 E3.27732
G1 X99.047 Y127.933 E3.29033
G1 X98.851 Y127.877 E3.29711
G1 X98.005 Y127.597 E3.32675
G1 X97.036 Y127.233 E3.36118
G1 X96.54 Y127.033 E3.37897
G1 X96.16 Y126.863 E3.39281
G1 X95.863 Y126.723 E3.40373
G1 X95.027 Y126.284 E3.43514
G1 X94.848 Y126.18 E3.44202
G1 X94.239 Y125.8 E3.4659
G1 X93.663 Y125.413 E3.48898
G1 X92.751 Y124.728 E3.52692
G1 X92.576 Y124.582 E3.5345
G1 X91.882 Y123.952 E3.56567
G1 X91.397 Y123.439 E3.58915
G1 X91.065 Y123.065 E3.60579
G1 X90.472 Y122.337 E3.63702
G1 X89.965 Y121.596 E3.66688
G1 X89.596 Y120.963 E3.69125
G1 X88.999 Y119.857 E3.73305
G1 X88.521 Y118.95 E3.76715
G1 X87.857 Y117.77 E3.81218
G1 X87.765 Y117.588 E3.81897
G1 X87.169 Y116.532 E3.8593
G1 X86.573 Y115.305 E3.90467
G1 X86.472 Y115.059 E3.91351
G1 X86.079 Y113.929 E3.9533
G1 X86.002 Y113.662 E3.96255
G1 X85.75 Y112.589 E3.99921
G1 X85.702 Y112.326 E4.0081
G1 X85.551 Y111.137 E4.04796
G1 X85.525 Y110.774 E4.06007
G1 X85.497 Y109.988 E4.08622
G1 X85.497 Y109.941 E4.08779
G1 X85.527 Y109.135 E4.11461
G1 X85.545 Y108.89 E4.12278
G1 X85.654 Y107.955 E4.15409
G1 X85.675 Y107.824 E4.15851
G1 X85.862 Y106.908 E4.1896
G1 X85.976 Y106.45 E4.2053
G1 X86.358 Y105.223 E4.24804
G1 X86.604 Y104.617 E4.26979
G1 X86.697 Y104.406 E4.27746
G1 X86.924 Y103.924 E4.29518
G1 X86.958 Y103.856 E4.29771
G1 X87.234 Y103.339 E4.3172
G1 X87.794 Y102.354 E4.35489
G1 X89.081 Y100.015 E4.44369
G1 X89.471 Y99.269 E4.47168
G1 X90.125 Y98.176 E4.51405
G1 X90.278 Y97.951 E4.5231
G1 X91.102 Y96.885 E4.56791
G1 X91.322 Y96.634 E4.57901
G1 X91.969 Y95.956 E4.61018
M204 S2000
G0 F7500 X92.259 Y96.233
M204 S500
G1 F1500 X92.791 Y95.756 E4.63395
G1 X92.981 Y95.597 E4.64219
G1 X93.231 Y95.395 E4.65288
G1 X93.395 Y95.266 E4.65982
G1 X94.372 Y94.582 E4.69948
G1 X94.794 Y94.321 E4.71599
G1 X95.273 Y94.042 E4.73443
G1 X95.397 Y93.974 E4.73913
G1 X95.701 Y93.813 E4.75057
G1 X96.062 Y93.63 E4.76403
G1 X96.55 Y93.399 E4.78199
G1 X96.676 Y93.343 E4.78658
G1 X97.314 Y93.083 E4.80949
G1 X97.889 Y92.871 E4.82987
G1 X98.258 Y92.743 E4.84286
G1 X98.591 Y92.634 E4.85452
G1 X98.96 Y92.521 E4.86735
G1 X99.527 Y92.358 E4.88698
G1 X100.197 Y92.188 E4.90997
G1 X101.036 Y92.005 E4.93853
G1 X101.384 Y91.936 E4.95033
G1 X101.564 Y91.903 E4.95641
G1 X101.892 Y91.848 E4.96747
G1 X102.448 Y91.764 E4.98618
G1 X102.763 Y91.721 E4.99675
G1 X103.178 Y91.671 E5.01065
G1 X103.467 Y91.64 E5.02032
G1 X103.92 Y91.598 E5.03545
G1 X104.211 Y91.575 E5.04516
G1 X104.795 Y91.537 E5.06463
G1 X105.099 Y91.522 E5.07475
G1 X105.375 Y91.512 E5.08394
G1 X105.622 Y91.506 E5.09215
G1 X106.24 Y91.498 E5.11271
G1 X106.533 Y91.498 E5.12246
G1 X106.873 Y91.503 E5.13377
G1 X107.149 Y91.511 E5.14295
G1 X107.811 Y91.538 E5.16499
G1 X108.074 Y91.552 E5.17375
G1 X108.363 Y91.571 E5.18338
G1 X108.649 Y91.593 E5.19292
G1 X109.144 Y91.639 E5.20945
G1 X109.448 Y91.672 E5.21962
G1 X109.931 Y91.731 E5.23581
G1 X110.227 Y91.771 E5.24574
G1 X110.605 Y91.828 E5.25846
G1 X110.905 Y91.878 E5.26857
G1 X111.454 Y91.977 E5.28713
G1 X111.859 Y92.057 E5.30086
G1 X112.251 Y92.147 E5.31423
G1 X113.091 Y92.355 E5.34302
G1 X113.432 Y92.445 E5.35475
G1 X113.605 Y92.494 E5.36073
G1 X113.873 Y92.574 E5.37003
G1 X114.866 Y92.885 E5.40464
G1 X116.054 Y93.271 E5.44619
G1 X118.478 Y93.984 E5.53022
G1 X120.945 Y94.634 E5.61508
G1 X123.041 Y95.128 E5.6867
G1 X123.352 Y95.198 E5.6973
G1 X123.629 Y95.264 E5.70677
G1 X123.878 Y95.327 E5.71532
G1 X124.181 Y95.408 E5.72575
G1 X124.469 Y95.49 E5.73571
G1 X125.276 Y95.755 E5.76396
G1 X125.458 Y95.823 E5.77042
G1 X125.924 Y96.01 E5.78712
G1 X126.141 Y96.103 E5.79497
G1 X127.259 Y96.662 E5.83655
G1 X127.717 Y96.926 E5.85413
G1 X128.493 Y97.42 E5.88473
G1 X129.523 Y98.239 E5.92849
G1 X129.778 Y98.469 E5.93992
G1 X130.434 Y99.114 E5.97051
G1 X131.213 Y100.055 E6.01114
G1 X131.389 Y100.294 E6.02102
G1 X131.953 Y101.142 E6.05489
G1 X132.002 Y101.224 E6.05807
G1 X132.44 Y102.034 E6.08869
G1 X132.805 Y102.879 E6.11931
G1 X133.096 Y103.752 E6.14992
G1 X133.263 Y104.416 E6.17269
G1 X133.341 Y104.776 E6.18494
G1 X133.496 Y105.684 E6.21558
G1 X133.573 Y106.601 E6.24618
G1 X133.58 Y107.18 E6.26544
G1 X133.556 Y108.717 E6.31657
G1 X133.554 Y108.788 E6.31893
G1 X133.554 Y111.306 E6.40268
G1 X133.568 Y111.867 E6.42135
G1 X133.58 Y112.866 E6.45458
G1 X133.551 Y113.786 E6.48519
G1 X133.376 Y115.065 E6.52813
G1 X133.316 Y115.366 E6.53833
G1 X133.097 Y116.26 E6.56895
G1 X132.802 Y117.132 E6.59957
G1 X132.431 Y117.975 E6.6302
G1 X132.052 Y118.678 E6.65676
G1 X131.871 Y118.985 E6.66862
G1 X131.37 Y119.757 E6.69923
G1 X130.803 Y120.482 E6.72984
G1 X130.235 Y121.096 E6.75766
G1 X130.148 Y121.183 E6.76175
G1 X129.845 Y121.475 E6.77575
G1 X129.688 Y121.62 E6.78285
G1 X128.985 Y122.215 E6.81349
G1 X128.153 Y122.797 E6.84726
G1 X127.741 Y123.057 E6.86346
G1 X126.942 Y123.514 E6.89408
G1 X126.32 Y123.81 E6.91699
G1 X125.82 Y124.028 E6.93513
G1 X124.65 Y124.458 E6.97659
G1 X124.468 Y124.513 E6.98291
G1 X124.004 Y124.642 E6.99893
G1 X123.617 Y124.74 E7.01221
G1 X123.328 Y124.809 E7.02209
G1 X122.882 Y124.909 E7.03729
G1 X120.365 Y125.509 E7.12335
G1 X117.955 Y126.156 E7.20635
G1 X114.383 Y127.248 E7.33058
G1 X114.027 Y127.364 E7.34303
G1 X113.664 Y127.476 E7.35567
G1 X113.087 Y127.642 E7.37564
G1 X112.415 Y127.812 E7.39869
G1 X111.576 Y127.995 E7.42726
G1 X111.219 Y128.066 E7.43936
G1 X111.06 Y128.095 E7.44474
G1 X110.747 Y128.147 E7.45529
G1 X110.16 Y128.236 E7.47504
G1 X109.832 Y128.281 E7.48605
G1 X109.348 Y128.339 E7.50226
G1 X109.061 Y128.369 E7.51186
G1 X108.725 Y128.4 E7.52308
G1 X108.446 Y128.422 E7.53239
G1 X107.868 Y128.46 E7.55166
G1 X107.579 Y128.475 E7.56128
G1 X107.24 Y128.488 E7.57257
G1 X106.958 Y128.495 E7.58195
G1 X106.359 Y128.502 E7.60187
G1 X106.079 Y128.502 E7.61118
G1 X105.739 Y128.497 E7.62249
G1 X105.47 Y128.489 E7.63145
G1 X104.797 Y128.462 E7.65385
G1 X104.53 Y128.448 E7.66274
G1 X104.255 Y128.43 E7.67191
G1 X103.956 Y128.407 E7.68188
G1 X103.445 Y128.359 E7.69895
G1 X103.15 Y128.327 E7.70882
G1 X102.692 Y128.271 E7.72417
G1 X102.385 Y128.229 E7.73447
G1 X101.964 Y128.165 E7.74864
G1 X101.674 Y128.116 E7.75842
G1 X101.192 Y128.029 E7.77471
G1 X100.782 Y127.948 E7.78861
G1 X100.361 Y127.853 E7.80296
G1 X99.521 Y127.645 E7.83175
G1 X99.157 Y127.548 E7.84428
G1 X98.961 Y127.492 E7.85106
G1 X98.145 Y127.223 E7.87963
G1 X97.176 Y126.859 E7.91406
G1 X96.696 Y126.665 E7.93128
G1 X96.33 Y126.501 E7.94462
G1 X96.033 Y126.361 E7.95554
G1 X95.228 Y125.938 E7.98579
G1 X95.049 Y125.834 E7.99267
G1 X94.462 Y125.468 E8.01568
G1 X93.886 Y125.081 E8.03876
G1 X93.007 Y124.421 E8.07532
G1 X92.832 Y124.275 E8.0829
G1 X92.152 Y123.655 E8.11351
G1 X91.696 Y123.173 E8.13557
G1 X91.364 Y122.799 E8.15221
G1 X90.783 Y122.085 E8.18282
G1 X90.304 Y121.383 E8.21109
G1 X89.948 Y120.773 E8.23458
G1 X89.353 Y119.671 E8.27624
G1 X88.857 Y118.73 E8.31162
G1 X88.206 Y117.573 E8.35577
G1 X88.127 Y117.418 E8.36156
G1 X87.517 Y116.336 E8.40287
G1 X86.943 Y115.153 E8.4466
G1 X86.842 Y114.907 E8.45545
G1 X86.463 Y113.818 E8.4938
G1 X86.386 Y113.551 E8.50304
G1 X86.143 Y112.517 E8.53837
G1 X86.095 Y112.254 E8.54726
G1 X85.95 Y111.108 E8.58568
G1 X85.924 Y110.745 E8.59779
G1 X85.897 Y109.988 E8.62298
G1 X85.897 Y109.941 E8.62454
G1 X85.925 Y109.164 E8.6504
G1 X85.943 Y108.919 E8.65857
G1 X86.049 Y108.018 E8.68875
G1 X86.07 Y107.887 E8.69316
G1 X86.25 Y107.005 E8.7231
G1 X86.364 Y106.547 E8.7388
G1 X86.733 Y105.365 E8.77998
G1 X86.97 Y104.779 E8.80101
G1 X87.063 Y104.568 E8.80868
G1 X87.282 Y104.103 E8.82577
G1 X87.316 Y104.035 E8.8283
G1 X87.582 Y103.537 E8.84708
G1 X88.132 Y102.569 E8.88411
G1 X89.42 Y100.23 E8.97292
G1 X89.825 Y99.454 E9.00203
G1 X90.456 Y98.401 E9.04286
G1 X90.609 Y98.176 E9.05191
G1 X91.403 Y97.149 E9.09509
G1 X91.623 Y96.898 E9.10619
G1 X92.259 Y96.233 E9.13679
M204 S2000
G0 F7500 X92.548 Y96.51
M204 S500
G1 F1500 X93.048 Y96.063 E9.1591
G1 X93.238 Y95.904 E9.16734
G1 X93.478 Y95.709 E9.17763
G1 X93.642 Y95.58 E9.18457
G1 X94.583 Y94.922 E9.22276
G1 X95.005 Y94.661 E9.23926
G1 X95.466 Y94.393 E9.257
G1 X95.882 Y94.17 E9.27269
G1 X96.243 Y93.987 E9.28616
G1 X96.712 Y93.764 E9.30343
G1 X96.838 Y93.708 E9.30801
G1 X97.452 Y93.459 E9.33005
G1 X98.027 Y93.247 E9.35044
G1 X98.383 Y93.123 E9.36297
G1 X98.716 Y93.014 E9.37463
G1 X99.071 Y92.905 E9.38698
G1 X99.638 Y92.742 E9.4066
G1 X100.282 Y92.579 E9.4287
G1 X101.121 Y92.396 E9.45726
G1 X101.456 Y92.329 E9.46862
G1 X101.636 Y92.296 E9.47471
G1 X101.951 Y92.243 E9.48533
G1 X102.507 Y92.159 E9.50403
G1 X102.811 Y92.118 E9.51424
G1 X103.226 Y92.068 E9.52814
G1 X103.504 Y92.039 E9.53744
G1 X103.957 Y91.997 E9.55257
G1 X104.237 Y91.975 E9.56191
G1 X104.821 Y91.937 E9.58137
G1 X105.114 Y91.922 E9.59113
G1 X105.627 Y91.906 E9.6082
G1 X106.245 Y91.898 E9.62876
G1 X106.527 Y91.898 E9.63814
G1 X106.867 Y91.903 E9.64945
G1 X107.133 Y91.91 E9.6583
G1 X107.795 Y91.937 E9.68033
G1 X108.337 Y91.97 E9.69839
G1 X108.612 Y91.992 E9.70757
G1 X109.107 Y92.038 E9.72411
G1 X109.4 Y92.069 E9.7339
G1 X109.883 Y92.128 E9.75009
G1 X110.167 Y92.167 E9.75962
G1 X110.545 Y92.224 E9.77234
G1 X110.834 Y92.272 E9.78208
G1 X111.383 Y92.371 E9.80064
G1 X111.777 Y92.449 E9.81399
G1 X112.155 Y92.535 E9.82689
G1 X112.995 Y92.743 E9.85567
G1 X113.323 Y92.83 E9.86696
G1 X113.496 Y92.879 E9.87294
G1 X113.754 Y92.956 E9.88189
G1 X114.742 Y93.265 E9.91632
G1 X115.954 Y93.659 E9.95871
G1 X118.369 Y94.369 E10.04243
G1 X120.822 Y95.015 E10.1268
G1 X122.979 Y95.524 E10.20052
G1 X123.264 Y95.588 E10.21023
G1 X123.531 Y95.652 E10.21936
G1 X123.78 Y95.715 E10.22791
G1 X124.071 Y95.793 E10.23793
G1 X124.359 Y95.875 E10.24789
G1 X125.136 Y96.13 E10.27508
G1 X125.318 Y96.198 E10.28155
G1 X125.766 Y96.378 E10.2976
G1 X125.983 Y96.471 E10.30546
G1 X127.059 Y97.009 E10.34547
G1 X127.517 Y97.273 E10.36305
G1 X128.279 Y97.758 E10.39309
G1 X129.255 Y98.536 E10.43461
G1 X129.51 Y98.766 E10.44603
G1 X130.153 Y99.4 E10.47606
G1 X130.891 Y100.292 E10.51457
G1 X131.067 Y100.531 E10.52444
G1 X131.61 Y101.347 E10.55704
G1 X131.659 Y101.429 E10.56022
G1 X132.087 Y102.224 E10.59025
G1 X132.444 Y103.054 E10.6203
G1 X132.725 Y103.912 E10.65033
G1 X132.872 Y104.501 E10.67052
G1 X132.95 Y104.861 E10.68277
G1 X133.102 Y105.751 E10.7128
G1 X133.174 Y106.652 E10.74286
G1 X133.18 Y107.174 E10.76023
G1 X133.156 Y108.706 E10.81119
G1 X133.154 Y108.777 E10.81355
G1 X133.154 Y111.317 E10.89803
G1 X133.168 Y111.871 E10.91646
G1 X133.18 Y112.87 E10.94969
G1 X133.151 Y113.773 E10.97974
G1 X132.984 Y114.987 E11.0205
G1 X132.924 Y115.288 E11.03071
G1 X132.709 Y116.165 E11.06074
G1 X132.416 Y117.019 E11.09077
G1 X132.05 Y117.845 E11.12082
G1 X131.708 Y118.474 E11.14463
G1 X131.527 Y118.781 E11.15649
G1 X131.034 Y119.538 E11.18653
G1 X130.476 Y120.249 E11.21659
G1 X129.952 Y120.813 E11.2422
G1 X129.865 Y120.9 E11.24629
G1 X129.573 Y121.181 E11.25977
G1 X129.416 Y121.326 E11.26688
G1 X128.727 Y121.909 E11.2969
